X:192
T:Still So Gently Upon Me Stealing. Le4.192
N:Fourth word of title indistinct
M:C
L:1/8
B:L.Leadley MS#4 c1850
Z:vmp. Peter Dunk 2016
Q:1/4=140
K:D
A>d|f2f2 (fe) (fg)|c'4 a2ba|a2e2 (eg) (fe)|(fc) d2z2 d>e|f2f2 (fe) (fg)|
c'4 a2ba|(ae)ee egfe|d4 z2c>d|f2f2 g3 f|e3 f g3 f|
(B>c) (c>d) (d>e) (e>f)|(f3e/)d/ c2 A>d|f2f2 (fe) (fg)|ba d'3 afd|A a2 a (ag)(ge)|
f g2 f fefg|gfed fedc|d a2 g fe fa/g/|gfed Ha^g=ge|d z [d'dB]2 [d'd]2|]

